X:1
T:Title
T:Always with Me (Spirited Away) - Flute Ver. 
T:Arranged by Donghyeok William Kim Composed by Kaku Wakako & Youmi Kimura 
C:Composer
L:1/8
M:3/4
K:C
V:1 treble nm="Piano" snm="Pno."
V:1
!mp! z2 z2 cd |: ec g3 e | d2 g2 d2 | cA e3 c | B4 B2 | A2 B2 cd | G2 c2 de | f2 fe dc | d4 cd | %9
 ec g3 e | d2 g2 d2 | cA A2 Bc | G4 G2 | A2 B2 cd | G2 c2 de | f2 fe dc | c4 c/d/e/f/ | %17
 .g2 .g2 .g2 | .g2 ga gf | .e2 .e2 .e2 | .e2 ef ed | .c2 .c2 cB | A2 B2 Bc | .d2 de de | d4 ef | %25
 .g2 .g2 .g2 | .g2 ga gf | .e2 .e2 .e2 | ef ed cB | .A2 Bc de | G2 c2 de | d3 d dc |1 .c4 cd :|2 %33
!>(! c6-!>)! || c4 z2 | z6 | z6 | z6 | z6 | z6 | z6 | z6 | z6 |] %43

